assets/icons/qvision/outlined_flag.svg

<svg xmlns="http://www.w3.org/2000/svg" height="24" viewBox="0 0 24 24" width="24"><path d="M0 0h24v24H0z" fill="none"/><path d="M14 6l-1-2H5v17h2v-7h5l1 2h7V6h-6zm4 8h-4l-1-2H7V6h5l1 2h5v6z"/></svg>

<svg width="24" height="24" viewBox="0 0 24 24" fill="none" xmlns="http://www.w3.org/2000/svg">
<g clip-path="url(#clip0_147_2210)">
<path d="M14 6L13 4H5V21H7V14H12L13 16H20V6H14ZM18 14H14L13 12H7V6H12L13 8H18V14Z" fill="#323232"/>
</g>
<defs>
<clipPath id="clip0_147_2210">
<rect width="24" height="24" fill="white"/>
</clipPath>
</defs>
</svg>
